X: 51
T:California Here I Come
% Nottingham Music Database
S:Trad, via EF
M:4/4
L:1/4
K:C
GA B|"C"c2 c2|"C/(pl"c2 c2|"F"dc3|"F"A4|"G"G2 G2|"G/(pl"G2 G2|"C"AG3|"C"E4|
"C"zG AG|"D7"zA BA|"G7"Bc dG-|"G7"G4|"C"zG AG|"D7"zA BA|
"G7"Bc dG-|"G7"GG AB|"C"c2 c2|"C/(pl"c2 c2|"F"dc3|"F"A4|"G"G2 G2|"G/(pl"G2 G2|\
"C"AG3|
"C"E3E|"F"F2 G2|"F"A2 c2|"E7"e2 dc-|"Am"c2 AB|"D7"c2 A2|"G7"cd3|"C"c4-|"C"c3||


